X: 43437
T: Y.892
R: reel
M: 4/4
K: Aminor
|:aAA/2A/2A ccBc|edeg aAAg|aAA/2A/2A ccBc|Bdgd BGGg|
aAA/2A/2A ccBc|edeg aAAg|aAA/2A/2A ccBc|gedB BAAg:|
|:eAA/2A/2A eAAg|edeg aAA/2A/2A|eAA/2A/2A eAAG|c2dc BGGg|
eAA/2A/2A eAAg|edeg aAA/2A/2A|aeea edeg|aegB BAAg:|

